svgs/sharp-regular/slider.svg

<svg xmlns="http://www.w3.org/2000/svg" viewBox="0 0 512 512"><!--! Font Awesome Pro 6.6.0 by @fontawesome - https://fontawesome.com License - https://fontawesome.com/license (Commercial License) Copyright 2024 Fonticons, Inc. --><path d="M368 144l0 224-64 0 0-224 64 0zM304 96l-48 0 0 48 0 224 0 48 48 0 64 0 48 0 0-48 0-88 72 0 24 0 0-48-24 0-72 0 0-88 0-48-48 0-64 0zM0 280l24 0 200 0 0-48L24 232 0 232l0 48z"/></svg>

<svg xmlns="http://www.w3.org/2000/svg" viewBox="0 0 512 512"><!--! Font Awesome Pro 6.4.0 by @fontawesome - https://fontawesome.com License - https://fontawesome.com/license (Commercial License) Copyright 2023 Fonticons, Inc. --><path d="M368 144V368H304V144h64zM304 96H256v48V368v48h48 64 48V368 280h72 24V232H488 416V144 96H368 304zM0 280H24 224V232H24 0v48z"/></svg>
